X:26
T: Dui hua
N: C0034
O: China, Shaanxi, Shanbei
S: I, 85, 2)]
N: typisch: Quartspruenge aufwaerts. Es gibt viele Lieder mit diesem
N: Titel aber anderen Melodien.
N: Diese Sammlung enthaelt mit Stand 1987 wenigstens 32 Aufnahmen
N: mit dem Titel "Dui hua"
N: C0046, C0495, C0136
N: Als Verzierungen nur Glissandi angegeben.
N: Doppelt in C0687.
R: Xiaodiao, Dui hua. Chang siji huahui]
M: 2/4
L: 1/16
K: Eb
c2f2c2B2 | c4f4 | G3BG2B2 | c8
G2c2G2F2 | G2c2G2F2 | E3FB2D2 | C8
c3cc2B2 | c4f4 | G3BG2B2 | c8
G2c2G2F2 | G2c2G2F2 | E3FB2D2 | C8
G3FE2F2 | c8
E3FB2D2 | C8
G3FE2F2 | c8
E3FB2D2 | C8
c6B2 | c4f4 | G3BG2B2 | c8
G2c2G2F2 | G2c2G2F2 | E3FB2D2 | C8

